;BEGIN PREDATOR NC HEADER
;MACH_FILE=HAAS - 3XVMILL.MCH
;MTOOL T1 S1 D6. C0. A0. H57.15
 ;MTOOL T1 S1 D6. H57.15 A0. C0. DIAM_OFFSET 1 = 3.
;MTOOL T2 S1 D2. C0. A0. H57.15
 ;MTOOL T2 S1 D2. H57.15 A0. C0. DIAM_OFFSET 2 = 1.
;SBOX X-16. Y-17.649 Z0. L32. W37.649 H2.
;END PREDATOR NC HEADER

;PROGRAM NAME - TOOLHOLDER.NC
;POST -  GRBL CNC Cue Maker
;DATE - SUN. 03/14/2021
;TIME - 12:24AM

G21 G40 G49 G54 G80 G90 G91.1
G53 G0 Z0.

;MACHINE SETUP - 1-FEATURE 2 AXIS-POCKET
;FEATURE 2 AXIS
;TOOL #1 6. 6.0000 DIA. 0.0000 CRAD. 4 FL.10.0000 CL
M6 T1
S1261 M3
G0 G90 G54 X9.5 Y13.5
;G43 H1 Z27. M8
Z7.
Z5.
G1 Z2. F179.4032
Z-8.
X-9.5 F358.8064
M9
M5
G53 G0 Z0.
G53 G0 X0. Y0.

;MACHINE SETUP - 1-FEATURE 2 AXIS-PROFILE FINISH
;FEATURE 2 AXIS

;TOOL #2 2. 2.0000 DIA. 0.0000 CRAD. 4 FL.10.0000 CL
M6 T2
S3783 M3
G90 G54 X13. Y19.
;G43 H2 Z27. M8
G3 X13. Y19. I-2. J0.
G0 Z7.
Z27.
M9
M5
G53 G0 Z0.
M30
;END OF PROGRAM

