%
( JOBSETUP[toolholder.mwjs]JOBSETUP)
O0100 ( PROGRAM NUMBER)
(PROGRAM NAME - TOOLHOLDER.NC)
(POST -  BC_4X_MILL GENERIC FANUC)
(DATE - SAT. 03/13/2021)
(TIME - 04:29PM)


(FIRST MACHINE SETUP - MACHINE SETUP - 1)

N01 G00 G17 G40 G49 G54 G80 G21 G90
N02 G90

(FIRST CUT - FIRST TOOL)
(MACHINE SETUP - 1-FEATURE 2 AXIS-PROFILE ROUGH)
(FEATURE 2 AXIS)

(TOOL #1 3.175 .125D - 120DEG - V-TOOL)
N03 T1 M06
N04 G54
N05 G90 X-5.313 Y15. S2383 M03
N06 G43 H1 D1 Z25.
N07 M10
N08 Z5.
N09 Z3.
N10 G94 G01 Z-10. F84.7574
N11 G02 X-13.912 Y12.418 I-4.688 J0. F169.5148
N12 G01 Y10.235
N13 G03 X-9.415 Y1.359 I20.413 J4.765
N14 G02 X-8.912 Y0. I-1.585 J-1.359
N15 G01 Y-1.466
N16 G02 X8.912 Y-1.466 I8.912 J-3.534
N17 G01 Y0.
N18 G02 X9.415 Y1.359 I2.088 J0.
N19 G03 X13.912 Y10.235 I-15.915 J13.641
N20 G01 Y12.418
N21 G02 X5.313 Y15. I-3.912 J2.582
N22 G02 X6.327 Y17.913 I4.688 J0.
N23 G01 X-6.327
N24 G02 X-5.313 Y15. I-3.673 J-2.913
N25 G00 Z5.
N26 Z25.
N27 M05
N28 M01
N29 M05
N30 G90

(NEXT CUT - NEXT TOOL)
(MACHINE SETUP - 1-FEATURE 2 AXIS-PROFILE FINISH)
(FEATURE 2 AXIS)

(TOOL #512.71/2 FLAT ENDMILL - STANDARD)
N31 T5 M06
N32 G54
N33 G17
N34 M11
N35 G00 G90 X-1.152 Y13.65 S595 M03
N36 G43 H5 D5 Z25. M08
N37 M10
N38 G00 Z5.
N39 Z3.
N40 G01 Z-10. F42.3787
N41 G02 X-4.174 Y8.206 I-8.848 J1.35 F84.7574
N42 G02 X4.174 Y8.206 I4.174 J-13.206
N43 G02 X1.152 Y13.65 I5.826 J6.794
N44 G01 X-1.152
N45 G00 Z5.
N46 Z25.
N47 M09
N48 M05
N49 M11
N50 G90
N51 T1 M06

(END OF FILE)
N52 M30

(END OF PROGRAM)
%
